X:1
T:Ahi crud'Amor
T:Ahi crud'Amor
T:Ludovico Bellanda Veronese
T:Source : Musische di L.Bellanda---Venetia---G.Vincenti---1607. Editor : André Vierendeels (02/07/15).
T:Notes : Original clefs : C4, F4 Figures in BC are notated in original print 
C:Ludovico Bellanda Veronese
%%score 1 2
L:1/8
Q:1/4=80
M:4/4
K:F
V:1 treble-8 nm="Tenor" snm="T"
V:2 bass nm="BC" snm="BC"
V:1
 d8- | d8 | c4 B4 | A8 | z dcB d4- | d2 G2 A4 | A4 c4- | c2 BA BABc | d3 e e4- | e4 d3 c | %10
w: Ahi|_|crud' A-|mor,|per- che sop- por-|* ti ch'io|ar- da|_ per don- na che mia pe-|na ve- *||
 c4 z ABc | B4 A3 G | G4 z4 | z2 B2 d4 | z dcB AGAB | c4 cBAG | FEFG A4- | A4 A4 | z2 c2 cBcB | %19
w: da, e non la|cre- * *|de,|a che,|a che per lei m'a- ven- ti|stra- li se non co-|no- sc'i, miei tor- men-|* ti,|non sai ch'el mio na-|
 c4- cGGA | A2- A/B/c/G/ G4 | z2 G2 GGGF | A3 G G4- | G2 F2 E4 | D8 | z4 B4 | B4 B4- | B2 B2 B4 | %28
w: rar _ li non mi|gio- * * * * va,|per- che non cre- d'il|mal se non|_ ch'il pro-|va,|Ac-|cio dun-|* que co-|
 c4 c2 A2 | d4 G4- | G2 A2 ^F4 | z2 ^FF F2 G2- | G2 G2 G4 | G4 B4 | B2 d3 c B2 | c4 A2 B2- | %36
w: no- sca mia|don- n'il|_ _ duol|che per lei l'al-|* m'at- to-|sc'A- mor|fa ch'el- l'il pro-|vi, fa chel-|
 BA G2 A4 | A2 d3 c B2 | c8 | B8 | z2 d2 c2 B2 | A4 A2 B2- | B2 AG ^F2 F2 | z ABA d4- | d2 B2 A4 | %45
w: * l'il pro- vi,|fa ch'el- l'il pro-||vi,|e qual Nar-|ci- so a-|* mi se stes- sa|in ri- mi- rar-|* s'il- vi-|
 G8 :| %46
w: so.|
V:2
 G,6 F,2 | _E,2 D,2 E,4- |"^6" E,4 C,4 |"^#" D,8 | B,,4- B,,A,, G,,F,, |"^#" _E,4 D,4 | %6
"^#""^b" D,4 C,4 | G,,8 |"^-natural3" G,8 |"^4""^#10" G,4 G,,4 | C,4 A,,4 |"^#" B,,3 C, D,4 | %12
"^-natural" G,,8 | G,,6 A,,2 | B,,4 F,4 | F,,G,, A,,B,, C,4 |"^#" D,4 A,,4- | A,,4 A,,4 | %18
 F,,4 F,4- | F,4 E,4 |"^#" D,4 G,,4 |"^-natural" C,4 C,4 | F,,4 G,,4 | A,,8 |"^#" D,8 | B,,8 | %26
 _E,8 | _E,4 G,4 | F,4 F,4 |"^6" F,4 _E,4 | D,8 | D,6 =B,,2- |"^b" B,,2 C,4 =B,,2 | %33
"^-natural" C,4 G,,4 | G,6 G,2 | F,4 F,2 _E,2- |"^#" E,2 _E,2 D,4 |"^#" D,2 B,,4 B,,2 | F,4 F,,4 | %39
 B,,4 z2 B,,2 | A,,2 G,,2 C,4 |"^3""^4" D,8 |"^3" D,8 | D,4- D, B,,A,,G,, |"^#" D,8 | %45
"^-natural" G,,8 :| %46

